icon/lg/aws-rds.svg

<?xml version="1.0" encoding="UTF-8"?>
<svg viewBox="0 0 256 256" version="1.1" xmlns="http://www.w3.org/2000/svg" xmlns:xlink="http://www.w3.org/1999/xlink" preserveAspectRatio="xMidYMid" height="1em" width="1em">
  <defs>
    <linearGradient x1="0%" y1="100%" x2="100%" y2="0%" id="linearGradient-1">
      <stop stop-color="#2E27AD" offset="0%"/>
      <stop stop-color="#527FFF" offset="100%"/>
    </linearGradient>
  </defs>
  <g>
    <rect fill="url(#linearGradient-1)" x="0" y="0" width="256" height="256"/>
    <path d="M49.3248,44.8 L79.0624,74.5376 L74.5376,79.0624 L44.8,49.3248 L44.8,73.6 L38.4,73.6 L38.4,41.6 C38.4,39.8336 39.8304,38.4 41.6,38.4 L73.6,38.4 L73.6,44.8 L49.3248,44.8 Z M217.6,41.6 L217.6,73.6 L211.2,73.6 L211.2,49.3248 L181.4624,79.0624 L176.9376,74.5376 L206.6752,44.8 L182.4,44.8 L182.4,38.4 L214.4,38.4 C216.1696,38.4 217.6,39.8336 217.6,41.6 L217.6,41.6 Z M211.2,182.4 L217.6,182.4 L217.6,214.4 C217.6,216.1664 216.1696,217.6 214.4,217.6 L182.4,217.6 L182.4,211.2 L206.6752,211.2 L176.9376,181.4624 L181.4624,176.9376 L211.2,206.6752 L211.2,182.4 Z M209.6,125.4816 C209.6,114.8608 197.3376,104.368 176.8,97.4144 L178.8512,91.3536 C202.4576,99.344 216,111.7824 216,125.4816 C216,139.184 202.4576,151.6256 178.848,159.6128 L176.7968,153.5488 C197.3376,146.5984 209.6,136.1088 209.6,125.4816 L209.6,125.4816 Z M46.5792,125.4816 C46.5792,135.6576 58.0576,145.872 77.2864,152.8096 L75.1136,158.8288 C52.912,150.8192 40.1792,138.6656 40.1792,125.4816 C40.1792,112.3008 52.912,100.1472 75.1136,92.1344 L77.2864,98.1536 C58.0576,105.0944 46.5792,115.3088 46.5792,125.4816 L46.5792,125.4816 Z M79.0624,181.4624 L49.3248,211.2 L73.6,211.2 L73.6,217.6 L41.6,217.6 C39.8304,217.6 38.4,216.1664 38.4,214.4 L38.4,182.4 L44.8,182.4 L44.8,206.6752 L74.5376,176.9376 L79.0624,181.4624 Z M128,100.1152 C105.1328,100.1152 92.8,94.208 92.8,91.7952 C92.8,89.3792 105.1328,83.4752 128,83.4752 C150.864,83.4752 163.2,89.3792 163.2,91.7952 C163.2,94.208 150.864,100.1152 128,100.1152 L128,100.1152 Z M128.0928,124.8992 C106.1984,124.8992 92.8,118.9184 92.8,115.664 L92.8,100.1088 C100.6816,104.4576 114.6624,106.5152 128,106.5152 C141.3376,106.5152 155.3184,104.4576 163.2,100.1088 L163.2,115.664 C163.2,118.9216 149.872,124.8992 128.0928,124.8992 L128.0928,124.8992 Z M128.0928,149.3344 C106.1984,149.3344 92.8,143.3536 92.8,140.0992 L92.8,124.3584 C100.5792,128.9312 114.3744,131.2992 128.0928,131.2992 C141.7344,131.2992 155.4496,128.9344 163.2,124.3744 L163.2,140.0992 C163.2,143.3568 149.872,149.3344 128.0928,149.3344 L128.0928,149.3344 Z M128,171.2576 C105.2256,171.2576 92.8,165.136 92.8,161.9904 L92.8,148.7936 C100.5792,153.3664 114.3744,155.7344 128.0928,155.7344 C141.7344,155.7344 155.4496,153.3728 163.2,148.8096 L163.2,161.9904 C163.2,165.136 150.7744,171.2576 128,171.2576 L128,171.2576 Z M128,77.0752 C107.9648,77.0752 86.4,81.68 86.4,91.7952 L86.4,161.9904 C86.4,172.2752 107.328,177.6576 128,177.6576 C148.672,177.6576 169.6,172.2752 169.6,161.9904 L169.6,91.7952 C169.6,81.68 148.0352,77.0752 128,77.0752 L128,77.0752 Z" fill="#FFFFFF"/>
  </g>
</svg>

<svg width="256" height="256" xmlns="http://www.w3.org/2000/svg" preserveAspectRatio="xMidYMid"><defs><linearGradient x1="0%" y1="100%" x2="100%" y2="0%" id="a"><stop stop-color="#2E27AD" offset="0%"/><stop stop-color="#527FFF" offset="100%"/></linearGradient></defs><path fill="url(#a)" d="M0 0h256v256H0z"/><path d="m49.325 44.8 29.737 29.738-4.524 4.524L44.8 49.325V73.6h-6.4v-32a3.2 3.2 0 0 1 3.2-3.2h32v6.4H49.325ZM217.6 41.6v32h-6.4V49.325l-29.738 29.737-4.524-4.524L206.675 44.8H182.4v-6.4h32a3.2 3.2 0 0 1 3.2 3.2Zm-6.4 140.8h6.4v32a3.2 3.2 0 0 1-3.2 3.2h-32v-6.4h24.275l-29.737-29.738 4.524-4.524 29.738 29.737V182.4Zm-1.6-56.918c0-10.621-12.262-21.114-32.8-28.068l2.051-6.06C202.458 99.344 216 111.782 216 125.482c0 13.702-13.542 26.144-37.152 34.13l-2.051-6.063c20.54-6.95 32.803-17.44 32.803-28.067Zm-163.02 0c0 10.176 11.478 20.39 30.706 27.328l-2.172 6.019c-22.202-8.01-34.935-20.163-34.935-33.347 0-13.181 12.733-25.335 34.935-33.348l2.172 6.02c-19.228 6.94-30.707 17.155-30.707 27.328Zm32.482 55.98L49.325 211.2H73.6v6.4h-32a3.2 3.2 0 0 1-3.2-3.2v-32h6.4v24.275l29.738-29.737 4.524 4.524ZM128 100.115c-22.867 0-35.2-5.907-35.2-8.32 0-2.416 12.333-8.32 35.2-8.32 22.864 0 35.2 5.904 35.2 8.32 0 2.413-12.336 8.32-35.2 8.32Zm.093 24.784c-21.895 0-35.293-5.98-35.293-9.235v-15.555c7.882 4.349 21.862 6.406 35.2 6.406 13.338 0 27.318-2.057 35.2-6.406v15.555c0 3.258-13.328 9.235-35.107 9.235Zm0 24.435c-21.895 0-35.293-5.98-35.293-9.235v-15.74c7.78 4.572 21.574 6.94 35.293 6.94 13.641 0 27.357-2.365 35.107-6.925V140.1c0 3.258-13.328 9.235-35.107 9.235ZM128 171.258c-22.774 0-35.2-6.122-35.2-9.268v-13.196c7.78 4.572 21.574 6.94 35.293 6.94 13.641 0 27.357-2.361 35.107-6.924v13.18c0 3.146-12.426 9.268-35.2 9.268Zm0-94.183c-20.035 0-41.6 4.605-41.6 14.72v70.195c0 10.285 20.928 15.668 41.6 15.668s41.6-5.383 41.6-15.668V91.795c0-10.115-21.565-14.72-41.6-14.72Z" fill="#FFF"/></svg>
